icons/mimetypes/64/application-x-ms-dos-executable.svg

<?xml version="1.0" encoding="UTF-8" standalone="no"?>
<svg
   xmlns:dc="http://purl.org/dc/elements/1.1/"
   xmlns:cc="http://creativecommons.org/ns#"
   xmlns:rdf="http://www.w3.org/1999/02/22-rdf-syntax-ns#"
   xmlns:svg="http://www.w3.org/2000/svg"
   xmlns="http://www.w3.org/2000/svg"
   xmlns:xlink="http://www.w3.org/1999/xlink"
   xmlns:sodipodi="http://sodipodi.sourceforge.net/DTD/sodipodi-0.dtd"
   xmlns:inkscape="http://www.inkscape.org/namespaces/inkscape"
   width="64"
   version="1.1"
   viewBox="0 0 64 64"
   height="64"
   id="svg2"
   inkscape:version="0.91 r13725"
   sodipodi:docname="application-x-ms-dos-executable.svg">
  <sodipodi:namedview
     pagecolor="#ffffff"
     bordercolor="#666666"
     borderopacity="1"
     objecttolerance="10"
     gridtolerance="10"
     guidetolerance="10"
     inkscape:pageopacity="0"
     inkscape:pageshadow="2"
     inkscape:window-width="1920"
     inkscape:window-height="1013"
     id="namedview24"
     showgrid="false"
     inkscape:zoom="1"
     inkscape:cx="40.526295"
     inkscape:cy="17.011298"
     inkscape:window-x="0"
     inkscape:window-y="38"
     inkscape:window-maximized="1"
     inkscape:current-layer="svg2"
     inkscape:snap-bbox="true"
     inkscape:bbox-nodes="true">
    <inkscape:grid
       type="xygrid"
       id="grid4244" />
  </sodipodi:namedview>
  <defs
     id="defs4">
    <linearGradient
       inkscape:collect="always"
       xlink:href="#linearGradient9654"
       id="linearGradient5313"
       gradientUnits="userSpaceOnUse"
       gradientTransform="translate(0,10e-6)"
       x1="40"
       y1="17"
       x2="54"
       y2="31" />
    <linearGradient
       id="linearGradient9654"
       inkscape:collect="always">
      <stop
         id="stop9656"
         offset="0"
         style="stop-color:#060606;stop-opacity:1" />
      <stop
         id="stop9658"
         offset="1"
         style="stop-color:#000000;stop-opacity:0" />
    </linearGradient>
    <linearGradient
       inkscape:collect="always"
       xlink:href="#linearGradient6251"
       id="linearGradient5315"
       gradientUnits="userSpaceOnUse"
       gradientTransform="translate(-48,-332.3622)"
       x1="58"
       y1="392.36221"
       x2="58"
       y2="336.36221" />
    <linearGradient
       id="linearGradient6251"
       inkscape:collect="always">
      <stop
         id="stop6253"
         offset="0"
         style="stop-color:#ffffff;stop-opacity:0" />
      <stop
         id="stop6255"
         offset="1"
         style="stop-color:#ffffff;stop-opacity:0.2" />
    </linearGradient>
  </defs>
  <metadata
     id="metadata84">
    <rdf:RDF>
      <cc:Work
         rdf:about="">
        <dc:format>image/svg+xml</dc:format>
        <dc:type
           rdf:resource="http://purl.org/dc/dcmitype/StillImage" />
        <dc:title />
      </cc:Work>
    </rdf:RDF>
  </metadata>
  <g
     id="g4211">
    <path
       inkscape:export-ydpi="96"
       inkscape:export-xdpi="96"
       d="m 10,61 0,-57.99999 30,0 14,14 L 54,47 54,61 40,61 10,61 Z"
       id="path5297"
       style="color:#000000;clip-rule:nonzero;display:inline;overflow:visible;visibility:visible;opacity:1;isolation:auto;mix-blend-mode:normal;color-interpolation:sRGB;color-interpolation-filters:linearRGB;solid-color:#000000;solid-opacity:1;fill:#555555;fill-opacity:1;fill-rule:nonzero;stroke-width:1;stroke-linecap:butt;stroke-linejoin:miter;stroke-miterlimit:4;stroke-dasharray:none;stroke-dashoffset:0;stroke-opacity:1;color-rendering:auto;image-rendering:auto;shape-rendering:auto;text-rendering:auto;enable-background:accumulate"
       inkscape:connector-curvature="0" />
    <rect
       inkscape:export-ydpi="96"
       inkscape:export-xdpi="96"
       transform="scale(1,-1)"
       id="rect5299"
       style="color:#000000;clip-rule:nonzero;display:inline;overflow:visible;visibility:visible;opacity:0.4;isolation:auto;mix-blend-mode:normal;color-interpolation:sRGB;color-interpolation-filters:linearRGB;solid-color:#000000;solid-opacity:1;fill:#ffffff;fill-opacity:1;fill-rule:nonzero;stroke-width:1;stroke-linecap:butt;stroke-linejoin:miter;stroke-miterlimit:4;stroke-dasharray:none;stroke-dashoffset:0;stroke-opacity:1;color-rendering:auto;image-rendering:auto;shape-rendering:auto;text-rendering:auto;enable-background:accumulate"
       height="1"
       y="-3.9999626"
       x="10"
       width="30" />
    <rect
       inkscape:export-ydpi="96"
       inkscape:export-xdpi="96"
       transform="scale(1,-1)"
       id="rect5301"
       style="color:#000000;clip-rule:nonzero;display:inline;overflow:visible;visibility:visible;opacity:0.35;isolation:auto;mix-blend-mode:normal;color-interpolation:sRGB;color-interpolation-filters:linearRGB;solid-color:#000000;solid-opacity:1;fill:#000000;fill-opacity:1;fill-rule:nonzero;stroke-width:1;stroke-linecap:butt;stroke-linejoin:miter;stroke-miterlimit:4;stroke-dasharray:none;stroke-dashoffset:0;stroke-opacity:1;color-rendering:auto;image-rendering:auto;shape-rendering:auto;text-rendering:auto;enable-background:accumulate"
       height="1"
       y="-60.999962"
       x="10"
       width="44" />
    <path
       inkscape:export-ydpi="96"
       inkscape:export-xdpi="96"
       d="m 54,17.00001 -14,-14 0,14 z"
       id="path5303"
       style="color:#000000;clip-rule:nonzero;display:inline;overflow:visible;visibility:visible;opacity:0.5;isolation:auto;mix-blend-mode:normal;color-interpolation:sRGB;color-interpolation-filters:linearRGB;solid-color:#000000;solid-opacity:1;fill:#ffffff;fill-opacity:1;fill-rule:evenodd;stroke-width:1;stroke-linecap:butt;stroke-linejoin:miter;stroke-miterlimit:4;stroke-dasharray:none;stroke-dashoffset:0;stroke-opacity:1;color-rendering:auto;image-rendering:auto;shape-rendering:auto;text-rendering:auto;enable-background:accumulate"
       inkscape:connector-curvature="0" />
    <path
       inkscape:export-ydpi="96"
       inkscape:export-xdpi="96"
       inkscape:connector-curvature="0"
       style="opacity:0.4;fill:url(#linearGradient5313);fill-rule:evenodd"
       id="path5305"
       d="M 40,17.00001 54,31 54,17.00001 Z" />
    <path
       inkscape:connector-curvature="0"
       style="color:#000000;clip-rule:nonzero;display:inline;overflow:visible;visibility:visible;opacity:1;isolation:auto;mix-blend-mode:normal;color-interpolation:sRGB;color-interpolation-filters:linearRGB;solid-color:#000000;solid-opacity:1;fill:#343434;fill-opacity:1;fill-rule:nonzero;stroke-width:1;stroke-linecap:butt;stroke-linejoin:miter;stroke-miterlimit:4;stroke-dasharray:none;stroke-dashoffset:0;stroke-opacity:1;color-rendering:auto;image-rendering:auto;shape-rendering:auto;text-rendering:auto;enable-background:accumulate;filter-blend-mode:normal;filter-gaussianBlur-deviation:0"
       d="m 20,24 0,22 26,0 0,-22 -26,0 z m 18,1 c 0.55228,0 1,0.44772 1,1 0,0.55228 -0.44772,1 -1,1 -0.55228,0 -1,-0.44772 -1,-1 0,-0.55228 0.44772,-1 1,-1 z m 3,0 c 0.55228,0 1,0.44772 1,1 0,0.55228 -0.44772,1 -1,1 -0.55228,0 -1,-0.44772 -1,-1 0,-0.55228 0.44772,-1 1,-1 z m 3,0 c 0.55228,0 1,0.44772 1,1 0,0.55228 -0.44772,1 -1,1 -0.55228,0 -1,-0.44772 -1,-1 0,-0.55228 0.44772,-1 1,-1 z m -23,3 24,0 0,17 -24,0 0,-17 z m 6,3 0,5 5,0 0,-5 -5,0 z m 6,0 0,5 5,0 0,-5 -5,0 z m -6,6 0,5 5,0 0,-5 -5,0 z m 6,0 0,5 5,0 0,-5 -5,0 z"
       id="path4195" />
    <path
       id="path5309"
       d="M 19 23 L 19 45 L 45 45 L 45 23 L 19 23 z M 37 24 C 37.55228 24 38 24.44772 38 25 C 38 25.55228 37.55228 26 37 26 C 36.44772 26 36 25.55228 36 25 C 36 24.44772 36.44772 24 37 24 z M 40 24 C 40.55228 24 41 24.44772 41 25 C 41 25.55228 40.55228 26 40 26 C 39.44772 26 39 25.55228 39 25 C 39 24.44772 39.44772 24 40 24 z M 43 24 C 43.55228 24 44 24.44772 44 25 C 44 25.55228 43.55228 26 43 26 C 42.44772 26 42 25.55228 42 25 C 42 24.44772 42.44772 24 43 24 z M 20 27 L 44 27 L 44 44 L 20 44 L 20 27 z M 26 30 L 26 35 L 31 35 L 31 30 L 26 30 z M 32 30 L 32 35 L 37 35 L 37 30 L 32 30 z M 26 36 L 26 41 L 31 41 L 31 36 L 26 36 z M 32 36 L 32 41 L 37 41 L 37 36 L 32 36 z "
       style="color:#000000;clip-rule:nonzero;display:inline;overflow:visible;visibility:visible;opacity:1;isolation:auto;mix-blend-mode:normal;color-interpolation:sRGB;color-interpolation-filters:linearRGB;solid-color:#000000;solid-opacity:1;fill:#e0e0e0;fill-opacity:1;fill-rule:nonzero;stroke-width:1;stroke-linecap:butt;stroke-linejoin:miter;stroke-miterlimit:4;stroke-dasharray:none;stroke-dashoffset:0;stroke-opacity:1;color-rendering:auto;image-rendering:auto;shape-rendering:auto;text-rendering:auto;enable-background:accumulate" />
    <path
       inkscape:export-ydpi="96"
       inkscape:export-xdpi="96"
       inkscape:connector-curvature="0"
       style="fill:url(#linearGradient5315);fill-opacity:1"
       id="path5311"
       d="m 10,61 0,-57.99999 30,0 14,14 L 54,47 54,61 40,61 10,61 Z" />
  </g>
</svg>

<svg width="64" xmlns="http://www.w3.org/2000/svg" viewBox="0 0 64 64" height="64" xmlns:xlink="http://www.w3.org/1999/xlink">
 <defs>
  <linearGradient id="a" y1="17" x1="40" y2="31" gradientUnits="userSpaceOnUse" x2="54">
   <stop stop-color="#060606"/>
   <stop offset="1" stop-opacity="0"/>
  </linearGradient>
  <linearGradient id="b" y1="392.36" y2="336.36" gradientUnits="userSpaceOnUse" x2="0" gradientTransform="translate(-48-332.36)">
   <stop stop-color="#ffffff" stop-opacity="0"/>
   <stop offset="1" stop-color="#ffffff" stop-opacity=".2"/>
  </linearGradient>
  <path id="c" d="m10 61v-58h30l14 14v44h-14z"/>
 </defs>
 <g color-rendering="auto" color-interpolation-filters="linearRGB" shape-rendering="auto" image-rendering="auto" text-rendering="auto" color-interpolation="sRGB" color="#000000">
  <use fill="#555555" xlink:href="#c"/>
  <g transform="scale(1-1)">
   <rect opacity=".4" x="10" y="-4" width="30" fill="#ffffff" height="1"/>
   <rect opacity=".35" x="10" y="-61" width="44" height="1"/>
  </g>
  <path opacity=".5" fill="#ffffff" fill-rule="evenodd" d="m54 17l-14-14v14z"/>
 </g>
 <path opacity=".4" fill="url(#a)" fill-rule="evenodd" d="m40 17l14 14v-14z"/>
 <g color-rendering="auto" color-interpolation-filters="linearRGB" shape-rendering="auto" image-rendering="auto" text-rendering="auto" color-interpolation="sRGB" color="#000000">
  <path fill="#343434" d="m20 24v22h26v-22zm18 1c.552 0 1 .448 1 1 0 .552-.448 1-1 1-.552 0-1-.448-1-1 0-.552.448-1 1-1m3 0c.552 0 1 .448 1 1 0 .552-.448 1-1 1-.552 0-1-.448-1-1 0-.552.448-1 1-1m3 0c.552 0 1 .448 1 1 0 .552-.448 1-1 1-.552 0-1-.448-1-1 0-.552.448-1 1-1m-23 3h24v17h-24zm6 3v5h5v-5zm6 0v5h5v-5zm-6 6v5h5v-5zm6 0v5h5v-5z"/>
  <path fill="#e0e0e0" d="m19 23v22h26v-22zm18 1c.552 0 1 .448 1 1 0 .552-.448 1-1 1-.552 0-1-.448-1-1 0-.552.448-1 1-1m3 0c.552 0 1 .448 1 1 0 .552-.448 1-1 1-.552 0-1-.448-1-1 0-.552.448-1 1-1m3 0c.552 0 1 .448 1 1 0 .552-.448 1-1 1-.552 0-1-.448-1-1 0-.552.448-1 1-1m-23 3h24v17h-24zm6 3v5h5v-5zm6 0v5h5v-5zm-6 6v5h5v-5zm6 0v5h5v-5z"/>
 </g>
 <use fill="url(#b)" xlink:href="#c"/>
</svg>
